icon-themes/colibre_svg/cmd/sc_pastespecial.svg

<svg viewBox="0 0 16 16" xmlns="http://www.w3.org/2000/svg">/&amp;amp;gt;<path d="m2 2c-.554 0-1 .446-1 1v12c0 .554.446 1 1 1h12c.554 0 1-.446 1-1v-12c0-.554-.446-1-1-1h-1v2c0 .554-.446 1-1 1h-8c-.554 0-1-.446-1-1v-2z" fill="#eac282"/><path d="m8 0a2 2 0 0 0 -2 2h-2v1c-.554 0-1 .446-1 1v10c0 .554.446 1 1 1h8c.554 0 1-.446 1-1v-10c0-.554-.446-1-1-1v-1h-2a2 2 0 0 0 -2-2zm0 1a1 1 0 0 1 1 1 1 1 0 0 1 -1 1 1 1 0 0 1 -1-1 1 1 0 0 1 .0058594-.0996094 1 1 0 0 1 .9941406-.9003906z" fill="#808080"/><path d="m4 4v10h8v-10z" fill="#fdf9f3"/><path d="m8.5 5c-1.38125 0-2.5 1.0743907-2.5 2.4003906v.5996094h1v-.5996094c0-.6599999.812504-1.4066504 1.5-1.4042968.990199.00339 1.49904.5352625 1.486328 1.3691406-.005.3299617-.374219.6648596-.605469.8808596l-.77539.755859c-.45.438-.623578.996364-.611328 1.65625l.005859.341797h1c0-1.192826-.000732-.999219.855469-1.697266l.5625-.552734c.35625-.342.582031-.8216094.582031-1.3496094 0-1.3259999-1.11875-2.4003906-2.5-2.4003906zm-.5 7v1h1v-1z" fill="#e68497"/></svg>

<?xml version="1.0" encoding="UTF-8" standalone="no"?>
<svg xmlns="http://www.w3.org/2000/svg" xmlns:sodipodi="http://sodipodi.sourceforge.net/DTD/sodipodi-0.dtd" xmlns:inkscape="http://www.inkscape.org/namespaces/inkscape" viewBox="0 0 16 16" version="1.1">
 <metadata id="metadata12">
  <rdf:RDF>
   <cc:Work>
    <dc:format>image/svg+xml</dc:format>
    <dc:type rdf:resource="http://purl.org/dc/dcmitype/StillImage"/>
   </cc:Work>
  </rdf:RDF>
 </metadata>
 <defs id="defs10"/>
 <sodipodi:namedview pagecolor="#ffffff" bordercolor="#666666" borderopacity="1" objecttolerance="10" gridtolerance="10" guidetolerance="10" inkscape:pageopacity="0" inkscape:pageshadow="2" inkscape:window-width="2560" inkscape:window-height="1319" id="namedview8" showgrid="true" inkscape:zoom="41.7193" inkscape:cx="8.3773657" inkscape:cy="4.7049294" inkscape:window-x="0" inkscape:window-y="30" inkscape:window-maximized="1" inkscape:current-layer="svg6">
  <inkscape:grid type="xygrid" id="grid855"/>
 </sodipodi:namedview>



     /&amp;gt;
   <path d="m2 2c-.554 0-1 .446-1 1v12c0 .554.446 1 1 1h12c.554 0 1-.446 1-1v-12c0-.554-.446-1-1-1h-1v2c0 .554-.446 1-1 1h-8c-.554 0-1-.446-1-1v-2z" fill="#eac282" id="path2"/> <path inkscape:connector-curvature="0" d="M 8,0 A 2,2 0 0 0 6,2 H 4 V 3 C 3.446,3 3,3.446 3,4 v 10 c 0,0.554 0.446,1 1,1 h 8 c 0.554,0 1,-0.446 1,-1 V 4 C 13,3.446 12.554,3 12,3 V 2 H 10 A 2,2 0 0 0 8,0 Z M 8,1 A 1,1 0 0 1 9,2 1,1 0 0 1 8,3 1,1 0 0 1 7,2 1,1 0 0 1 7.0058594,1.9003906 1,1 0 0 1 8,1 Z" id="rect816" opacity="1" stroke-dasharray="none" stroke-opacity="1" fill="#808080" stroke="none" stroke-linejoin="round" fill-opacity="1" stroke-linecap="round" stroke-width="2" stroke-miterlimit="4"/> <path inkscape:connector-curvature="0" d="m 4,4 v 10 h 8 V 4 Z" id="rect818" opacity="1" stroke-dasharray="none" stroke-opacity="1" fill="#fdf9f3" stroke="none" stroke-linejoin="round" fill-opacity="1" stroke-linecap="round" stroke-width="2" stroke-miterlimit="4"/> <path inkscape:connector-curvature="0" d="M 8.5,5 C 7.11875,5 6,6.0743907 6,7.4003906 V 8 H 7 V 7.4003906 C 7,6.7403907 7.812504,5.9937402 8.5,5.9960938 9.490199,5.9994838 9.99904,6.5313563 9.986328,7.3652344 9.981328,7.6951961 9.612109,8.030094 9.380859,8.246094 l -0.77539,0.755859 c -0.45,0.438 -0.623578,0.996364 -0.611328,1.65625 L 8,11 H 9 C 9,9.807174 8.999268,10.000781 9.855469,9.302734 L 10.417969,8.75 C 10.774219,8.408 11,7.9283906 11,7.4003906 11,6.0743907 9.88125,5 8.5,5 Z M 8,12 v 1 h 1 v -1 z" id="path4-3" sodipodi:nodetypes="ssccssccccccccssccccc" fill="#e68497" fill-opacity="1"/></svg>
